!!!OTL: Hong mudan kaizai baihuayuan
!!!ARE: Asia, China,ÿQinghai Huzhu
!! I, 239
!!!SCT: C2082
!!!YEM: Copyright 1995, estate of Helmut Schaffrath.
**kern
*ICvox
*Ivox
*M3/8
*k[b-e-]
*B-:
{8bb-
=1
8ff
8gg
8ff
=2
8dd
8ff
16ff
16gg
=3
16ff
16gg
16bb-
16ccc
8ddd
=4
[4.ccc
=5
4ccc]}
{24ddd
24fff
24ggg
=6
8gg
8.ff
16gg
=7
16ff
16gg
16bb-
16ccc
8ddd
=8
[4.bb-
=9
4bb-]
8r}
=10
{8dd
8ff
16gg
16bb-
=11
16ff
16gg
16bb-
16ccc
16ddd
16fff
=12
8gg
8.ff
16gg
=13
16ff
16gg
16bb-
16ccc
8ddd
=14
8bb-
4gg
=15
[4.ff
=16
4ff]}
==
!!!AGN: Shange, Tuzuling
!! Tuzu
!!!ONB: ESAC (Essen Associative Code) Database: SENGANSU
!!!AMT: simple triple
!!!AIN: vox
!!!EED: Helmut Schaffrath
!!!EEV: 1.0
*-
!!!ONB: Tied note syntax fixed by Craig Sapp, 2004/05/03/
